X:90
T:Halfway Pond
M:3/4
L:1/8
C:Jim Childress
G:Key: G
S:"Turkey Sag", © 2004 Jim Childress
S:https://store.cdbaby.com/cd/jimchildress2
S:http://jimchildress.weebly.com/turkey-sag.html
N:"We played this in cross G tuning on the CD, but I usually play it in standard tuning."
Z:abc-transcription Josh Larios <hades@elsewhere.org>, 2017.07.31
R:Waltz
K:G
gf |: "C"ed dg gd | "G"ed dB Bc | de dc BG | "D"A4 GA | 
"Em"B2- BA GF |1 "C"E2- EF GA | "G"B2- BA GB | "D"A4 gf :| 
|2 "C"E2- EF GB | "D"A2- AG GF | "G"G4 GF |
|: "C"EG GG EG | "G"DG GG EG | GA BG AB | "D"A4 GF | 
"C"EG GG EG | "G"DG GG EG | "D"GA BG AF | "G"G4 GF :| 
|: (& "C"E2- EF ED | "G"D4 GF | "C"E2- EF GB | "D"A4 GF & G,6 | G,6 | G,4-G,D | D4 G,2 &) | 
(& "C"E2- EF ED | "G"D4 B,2 | "D"A,2- A,B, A,G, | "G"G,4 GF & G,6 | G,4 D2 | D6 | D4 G,2 &) :| 

